X:585
T:Miss Scott of Usan
R:Reel
B:The Athole Collection
M:C|
L:1/8
K:F
A|~F2 cA c2 fd|~F2 cA dGGA||~F2 cA c2 fd|cfAf AFF:|
e|fcfa gdbg|fcfa gdde|fcfa gagc|Acfc Affe|fcfa gdbg|fcfa gdde|faga fgdf|
cAfc AFF||

